wp-content/plugins/google-analytics-for-wordpress/lite/assets/vue/img/yir-icon-dollar.svg

<svg width="16" height="29" viewBox="0 0 16 29" fill="none" xmlns="http://www.w3.org/2000/svg">
    <path d="M8.61538 12.7186C5.04414 11.7864 3.89407 10.7714 3.89407 9.25928C3.89407 7.51929 5.48802 6.29714 8.13115 6.29714C10.9155 6.29714 11.9647 7.66429 12.0454 9.69429H15.4956C15.3947 6.91857 13.7402 4.37071 10.4716 3.54214V0H5.77049V3.50071C2.72383 4.16357 0.282472 6.19357 0.282472 9.32143C0.282472 13.0293 3.28878 14.8936 7.66709 15.9707C11.6015 16.9236 12.3884 18.3529 12.3884 19.8443C12.3884 20.9421 11.6015 22.7236 8.15132 22.7236C4.92308 22.7236 3.65195 21.2321 3.47037 19.3264H0C0.201765 22.8479 2.74401 24.8364 5.77049 25.4786V29H10.4918V25.5407C13.5586 24.94 15.9798 23.1379 16 19.8029C15.9798 15.2457 12.1665 13.6714 8.61538 12.7186Z" fill="white"/>
</svg>

<svg width="16" height="29" fill="none" xmlns="http://www.w3.org/2000/svg"><path d="M8.615 12.719c-3.57-.933-4.72-1.948-4.72-3.46 0-1.74 1.593-2.962 4.236-2.962 2.784 0 3.834 1.367 3.914 3.397h3.45c-.1-2.775-1.755-5.323-5.023-6.152V0H5.77v3.5C2.724 4.165.282 6.195.282 9.322c0 3.708 3.007 5.573 7.385 6.65 3.934.953 4.721 2.382 4.721 3.873 0 1.098-.787 2.88-4.237 2.88-3.228 0-4.5-1.492-4.68-3.398H0c.202 3.522 2.744 5.51 5.77 6.153V29h4.722v-3.46c3.067-.6 5.488-2.402 5.508-5.737-.02-4.557-3.834-6.132-7.385-7.084z" fill="#fff"/></svg>
